data/playwrite-nl.svg

<svg width="112.59" height="35.672" viewBox="0 0 112.59 35.672" xmlns="http://www.w3.org/2000/svg"><path transform="translate(0 24.668) scale(.014 -.014)" d="m629 492q-18-1-26 9.5t-4 30.5q4 17 14.5 27.5t29.5 11.5q93 3 177.5 23.5t154.5 56.5 122 85.5 80.5 111 28.5 132.5q0 54-21.5 96t-62 70.5-99 43.5-132.5 15q-97 0-190.5-20.5t-177.5-63-155-109.5q-17-17-31-15t-28 17q-11 11-11.5 25t14.5 29q58 57 126 98.5t143.5 68.5 156 40 161.5 13q97 0 172-21t125.5-61 76.5-95.5 26-126.5q0-86-33.5-159.5t-95-133-145.5-102.5-184.5-67.5-211.5-29.5zm-435-510q-47 0-84.5 21.5t-63 59-38.5 85.5q-5 20 0 32.5t23 18.5q21 7 32.5 1.5t17.5-23.5q13-38 30.5-62.5t39-36 47.5-11.5q48 0 82.5 41t66.5 142l260 805q5 14 17 20.5t34 6.5q23 0 33.5-7t5.5-23l-261-808q-28-87-62.5-145.5t-78.5-87.5-101-29z"/><path transform="translate(15.708 24.668) scale(.014 -.014)" d="m-159-17q-19 0-25 11.5t-2 26 16 26 29 11.5q31 0 74 27.5t94.5 77 107 114.5 111.5 141.5 109 158 98 163 79 158 53.5 142 19.5 113.5q0 17 13 25.5t30 8.5 29.5-8.5 12.5-25.5q0-51-20.5-120.5t-57.5-150.5-86.5-168.5-107.5-175-120.5-169-125.5-151.5-123.5-123-113.5-82.5-94-29.5zm322 1q-40 0-60 16t-25.5 42 0 56.5 14.5 59.5l308 949q32 98 76 141.5t104 43.5q36 0 60.5-16.5t37-48 12.5-74.5q0-19-12.5-28t-29.5-9-30 9-13 28q0 18-4 30.5t-12.5 19-22.5 6.5-27.5-11-27-36.5-28.5-69.5l-318-981q-4-14-5.5-26t2.5-18.5 16-6.5 24 7 22.5 18.5 20.5 24.5q7 9 16.5 12t23.5-7q17-10 18-20.5t-4-20.5q-9-17-28.5-38t-46-36.5-61.5-15.5z"/><path transform="translate(21.224 24.668) scale(.014 -.014)" d="m169-17q-40 0-69 19t-44.5 54.5-15.5 84.5q0 45 13 96.5t39 101 65.5 90.5 91.5 65.5 117 24.5q32 0 64-9t60-25l1 4q6 17 16 21.5t28 4.5q31 0 39.5-9.5t1.5-29.5l-121-365q-4-14-5.5-26t3-18.5 15.5-6.5q13 0 24.5 7t22.5 18.5 21 24.5q7 9 16.5 12t22.5-7q17-10 18.5-20.5t-3.5-20.5q-10-17-29-38t-45.5-36.5-61.5-15.5q-32 0-50.5 11.5t-26 30-8 40.5 3.5 44q1 2 1.5 4.5t0.5 5.5q-37-50-73.5-80t-70-43.5-62.5-13.5zm-39 170q0-28 8-48.5t23-31 37-10.5q34 0 72 27.5t78.5 80 79.5 127.5l40 119q-29 14-55 18.5t-51 4.5q-48 0-85.5-19.5t-65-51.5-45.5-70.5-27-76.5-9-69z"/><path transform="translate(29.932 24.668) scale(.014 -.014)" d="m412-53q17 15 36.5 30.5t39.5 29 37.5 25.5 31.5 20 24 2.5 15-18.5 3.5-26-12.5-20q-19-12-41.5-28t-47-33.5-48.5-36-44-36.5zm-365-739q-60 0-94 36.5t-34 90.5 18.5 109 54 111.5 88 114.5 120.5 116q26 23 49.5 42t47.5 37.5 50 38.5l72 224q-25-35-52.5-61.5t-55.5-45-56.5-28-57.5-9.5q-51 0-80.5 23.5t-35.5 68 15 106.5l73 224q6 17 1 26.5t-19 9.5q-12 0-25-7.5t-27.5-24-34.5-43.5q-10-13-19-17.5t-26 1.5q-20 8-21.5 20.5t6.5 26.5q19 33 43 60t53.5 43 65.5 16q34 0 54.5-12t29-33 7-47.5-10.5-54.5l-66-200q-11-33-11.5-57.5t14-37 45.5-12.5q29 0 62.5 20t68 56.5 67.5 86 61 109.5l48 148q7 20 16.5 26t28.5 6q31 0 39.5-9.5t1.5-29.5l-325-998q-24-72-49-123.5t-55-84-65.5-47.5-79.5-15zm13 76q30 0 56 20.5t49.5 64.5 45.5 114l97 301q-13-11-26-21.5t-25-21-23-20.5q-57-54-99.5-103.5t-71-95.5-43-89.5-14.5-83.5q0-22 7-36.5t19.5-21.5 27.5-7z"/><path transform="translate(39.242 24.668) scale(.014 -.014)" d="m203-19q-47 0-74 18.5t-37 50-7.5 69.5 15.5 76l69 211q6 17 1 26.5t-19 9.5q-12 0-25-7.5t-27.5-24-34.5-43.5q-10-13-19-17.5t-26 1.5q-20 8-21.5 20.5t6.5 26.5q19 33 43 60t53.5 43 65.5 16q34 0 54.5-12t28.5-33 6.5-47.5-10.5-54.5l-60-186q-9-29-12.5-57.5t8-47 45.5-18.5q25 0 51.5 14.5t51.5 41 47.5 62.5 38.5 77l74 228q5 17 14 24.5t31 7.5q32 0 39-9.5t1-28.5l-80-255q-8-24-14.5-52.5t-5.5-53.5 14-40.5 44-15.5q36 0 68.5 20.5t59 54.5 45.5 75.5 30 85.5 11 83q0 14-1 28.5t-2.5 28.5-4.5 27q-4 19 0 31t14.5 18 26.5 6q18 0 28.5-11t16.5-37q3-13 5-27t3-28.5 1-30.5q0-48-14.5-103t-41.5-108-66-97-88-70-108-26q-46 0-74 16t-41.5 41.5-15.5 56.5q-23-35-51-61t-60-39.5-70-13.5z"/><path transform="translate(51.674 24.668) scale(.014 -.014)" d="m-159-17q-19 0-25 11.5t-2.5 26 15.5 26 31 11.5q34 0 70.5 23t75 69.5 79.5 119 85 171.5l57-26q-52-122-98.5-204.5t-92.5-133-93.5-72.5-101.5-22zm558 1q-37 0-57.5 13t-27.5 34.5-4.5 46.5 10.5 50q7 21 19.5 51.5t27 65 28.5 69 22 64.5 1.5 40.5-25.5 10.5q-24 0-53.5-10t-60.5-19.5-62-9.5q-20 0-34.5 14.5t-22 37.5-7.5 48q0 23 7.5 44t23 34.5 39.5 13.5q23 0 34-13.5t11-33.5q0-15-5-32.5t-13-33.5q15 0 44 11t65.5 22 71.5 11q30 0 50.5-14t27-44.5-7.5-82.5q-7-28-21-62.5t-29.5-71.5-29.5-71-22-61q-9-26-3.5-36t19.5-10q12 0 23.5 7t22 18.5 20.5 24.5q7 9 16 12t23-7q17-10 18.5-20.5t-3.5-20.5q-10-17-29-38t-45.5-36.5-61.5-15.5z"/><path transform="translate(59.626 24.668) scale(.014 -.014)" d="m135-16q-62 0-81 44.5t8 126.5l107 328q6 20 15.5 26t29.5 6q31 0 39.5-9.5t1.5-29.5l-118-362q-9-27-5.5-40.5t20.5-13.5q12 0 23 6.5t21.5 18 21.5 25.5q7 9 16.5 12t22.5-7q17-10 18.5-20.5t-4.5-20.5q-15-26-36-46.5t-46-32-54-11.5zm141 685q-20 0-34.5 13t-14.5 38q0 27 18 51t55 24q20 0 34.5-12.5t14.5-38.5q0-27-17.5-51t-55.5-24z"/><path transform="translate(63.826 24.668) scale(.014 -.014)" d="m163-16q-49 0-72 23t-23.5 63.5 16.5 92.5l83 257h-77q-11 0-15 10t1 30q6 20 15.5 30t20.5 10h82l64 198q6 20 15.5 26t29.5 6q31 0 39.5-9.5t1.5-29.5l-62-191h126q11 0 15-9.5t-1-30.5q-6-19-16-29.5t-21-10.5h-129l-96-292q-11-35-5.5-51.5t25.5-16.5q26 0 51.5 19t45.5 46q8 9 18 11.5t25-7.5q16-10 17-20t-4-19q-12-21-35-45.5t-56.5-42.5-78.5-18z"/><path transform="translate(69.258 24.668) scale(.014 -.014)" d="m243-18q-36 0-66 12t-54 33-41 50-26 64-9 74q0 38 8.5 79.5t27 81.5 46.5 72.5 66 51.5 87 19q37 0 63.5-14.5t40.5-40 14-59.5q0-53-27.5-104.5t-72.5-98-98-84.5q-55-40-116.5-70.5t-120.5-47.5-108-17q-14 0-20.5 11.5t-4.5 26 13.5 26 32.5 11.5q40 0 89 16t99.5 43.5 95.5 62.5q38 29 72 63t55 70.5 21 71.5q0 26-11.5 40t-35.5 14q-31 0-55-22.5t-40-56.5-24.5-72-8.5-70q0-34 9-62.5t26-49.5 39.5-32.5 50.5-11.5q27 0 53 11t51 30 47 40q13 13 27.5 10.5t24.5-13.5q12-12 14-25t-11-27q-35-39-71.5-62t-74.5-33.5-77-10.5z"/><path transform="translate(79.674 24.668) scale(.014 -.014)" d="m1022-18q-57 0-88 29t-33 86.5 25 140.5l240 719q27 81 24 135.5t-35.5 82.5-96.5 28q-39 0-87-15.5t-100.5-48.5-106.5-86.5-105-129-96-175.5l-237-734q-5-14-17-21t-35-7q-22 0-32.5 7t-5.5 23l345 1066q20 61 11 92.5t-47 31.5q-25 0-55-17t-63.5-51.5-72.5-86.5q-14-18-28-20t-30 10q-16 11-17 24t11 30q47 67 93.5 110t91.5 64 87 21q39 0 65.5-13.5t40-38 15.5-60-9-79.5l-30-95q52 76 109 130t114 88 110.5 50 97.5 16q92 0 143-41t60.5-117-25.5-180l-242-726q-19-57-22-92t8.5-51 34.5-16q21 0 42 14t45 43.5 53 75.5q12 18 23.5 21t28.5-6q18-11 21-23.5t-6-29.5q-25-42-51-74.5t-53.5-56-55.5-35.5-57-12z"/><path transform="translate(97.916 24.668) scale(.014 -.014)" d="m127-21q-41 0-71.5 15t-48 43-17.5 64q0 45 21.5 80t60 54.5 88.5 19.5q43 0 81.5-12.5t75.5-33 74-43 76.5-43 84-33 95.5-12.5q64 0 117.5 23.5t97 71.5 77.5 119q10 19 22.5 26t33.5-4q18-9 21.5-23.5t-6.5-34.5q-45-88-101-146t-123.5-87.5-150.5-29.5q-66 0-123 18.5t-106 45.5-92.5 53.5-83 45-77.5 18.5q-33 0-52.5-17.5t-19.5-46.5q0-23 15.5-37.5t39.5-14.5q54 0 98.5 52.5t82.5 169.5l218 672q28 87 62.5 151t77.5 105 95 60.5 115 19.5q59 0 104.5-26t75.5-75.5 41-120.5q3-21-4-32.5t-27-15.5q-19-5-30.5 1.5t-14.5 25.5q-10 55-31.5 90.5t-53 53.5-73.5 18q-43 0-80-16t-68-49-57-82.5-48-117.5l-219-676q-33-101-73.5-164.5t-90-93-109.5-29.5z"/></svg>

<?xml version="1.0" encoding="utf-8" ?>
<svg baseProfile="tiny" height="100%" version="1.2" width="100%" xmlns="http://www.w3.org/2000/svg" xmlns:ev="http://www.w3.org/2001/xml-events" xmlns:xlink="http://www.w3.org/1999/xlink"><defs /><g><path d="M629 492Q611 491 603.0 501.5Q595 512 599 532Q603 549 613.5 559.5Q624 570 643 571Q736 574 820.5 594.5Q905 615 975.0 651.0Q1045 687 1097.0 736.5Q1149 786 1177.5 847.5Q1206 909 1206 980Q1206 1034 1184.5 1076.0Q1163 1118 1122.5 1146.5Q1082 1175 1023.5 1190.0Q965 1205 891 1205Q794 1205 700.5 1184.5Q607 1164 523.0 1121.5Q439 1079 368 1012Q351 995 337.0 997.0Q323 999 309 1014Q298 1025 297.5 1039.0Q297 1053 312 1068Q370 1125 438.0 1166.5Q506 1208 581.5 1235.0Q657 1262 737.5 1275.0Q818 1288 899 1288Q996 1288 1071.0 1267.0Q1146 1246 1196.5 1206.0Q1247 1166 1273.0 1110.5Q1299 1055 1299 984Q1299 898 1265.5 824.5Q1232 751 1170.5 691.5Q1109 632 1025.0 589.0Q941 546 840.5 521.5Q740 497 629 492ZM194 -18Q147 -18 109.5 3.5Q72 25 46.5 62.5Q21 100 8 148Q3 168 8.0 180.5Q13 193 31 199Q52 206 63.5 200.5Q75 195 81 177Q94 139 111.5 114.5Q129 90 150.5 78.5Q172 67 198 67Q246 67 280.5 108.0Q315 149 347 250L607 1055Q612 1069 624.0 1075.5Q636 1082 658 1082Q681 1082 691.5 1075.0Q702 1068 697 1052L436 244Q408 157 373.5 98.5Q339 40 295.0 11.0Q251 -18 194 -18Z" transform="translate(0.0, 72) scale(0.072, -0.072)" /><path d="M-159 -17Q-178 -17 -184.0 -5.5Q-190 6 -186.0 20.5Q-182 35 -170.0 46.5Q-158 58 -141 58Q-110 58 -67.0 85.5Q-24 113 27.5 162.5Q79 212 134.5 277.0Q190 342 246.0 418.5Q302 495 355.0 576.5Q408 658 453.0 739.5Q498 821 532.0 897.5Q566 974 585.5 1039.5Q605 1105 605 1153Q605 1170 618.0 1178.5Q631 1187 648.0 1187.0Q665 1187 677.5 1178.5Q690 1170 690 1153Q690 1102 669.5 1032.5Q649 963 612.0 882.0Q575 801 525.5 713.5Q476 626 418.0 538.5Q360 451 297.5 369.5Q235 288 172.0 218.0Q109 148 48.5 95.0Q-12 42 -65.0 12.5Q-118 -17 -159 -17ZM163 -16Q123 -16 103.0 0.0Q83 16 77.5 42.0Q72 68 77.5 98.5Q83 129 92 158L400 1107Q432 1205 476.0 1248.5Q520 1292 580 1292Q616 1292 640.5 1275.5Q665 1259 677.5 1227.5Q690 1196 690 1153Q690 1134 677.5 1125.0Q665 1116 648.0 1116.0Q631 1116 618.0 1125.0Q605 1134 605 1153Q605 1171 601.0 1183.5Q597 1196 588.5 1202.5Q580 1209 566 1209Q552 1209 538.5 1198.0Q525 1187 511.5 1161.5Q498 1136 483 1092L165 111Q161 97 159.5 85.0Q158 73 162.0 66.5Q166 60 178 60Q190 60 202.0 67.0Q214 74 224.5 85.5Q235 97 245 110Q252 119 261.5 122.0Q271 125 285 115Q302 105 303.0 94.5Q304 84 299 74Q290 57 270.5 36.0Q251 15 224.5 -0.5Q198 -16 163 -16Z" transform="translate(80.78399999999999, 72) scale(0.072, -0.072)" /><path d="M169 -17Q129 -17 100.0 2.0Q71 21 55.5 56.5Q40 92 40 141Q40 186 53.0 237.5Q66 289 92.0 338.5Q118 388 157.5 429.0Q197 470 249.0 494.5Q301 519 366 519Q398 519 430.0 510.0Q462 501 490 485L491 489Q497 506 507.0 510.5Q517 515 535 515Q566 515 574.5 505.5Q583 496 576 476L455 111Q451 97 449.5 85.0Q448 73 452.5 66.5Q457 60 468 60Q481 60 492.5 67.0Q504 74 515.0 85.5Q526 97 536 110Q543 119 552.5 122.0Q562 125 575 115Q592 105 593.5 94.5Q595 84 590 74Q580 57 561.0 36.0Q542 15 515.5 -0.5Q489 -16 454 -16Q422 -16 403.5 -4.5Q385 7 377.5 25.5Q370 44 369.5 66.0Q369 88 373 110Q374 112 374.5 114.5Q375 117 375 120Q338 70 301.5 40.0Q265 10 231.5 -3.5Q198 -17 169 -17ZM130 153Q130 125 138.0 104.5Q146 84 161.0 73.5Q176 63 198 63Q232 63 270.0 90.5Q308 118 348.5 170.5Q389 223 428 298L468 417Q439 431 413.0 435.5Q387 440 362 440Q314 440 276.5 420.5Q239 401 211.5 369.0Q184 337 166.0 298.5Q148 260 139.0 222.0Q130 184 130 153Z" transform="translate(109.15199999999999, 72) scale(0.072, -0.072)" /><path d="M412 -53Q429 -38 448.5 -22.5Q468 -7 488.0 6.5Q508 20 525.5 32.0Q543 44 557 52Q571 60 581.0 54.5Q591 49 596.0 36.0Q601 23 599.5 10.0Q598 -3 587 -10Q568 -22 545.5 -38.0Q523 -54 498.5 -71.5Q474 -89 450.0 -107.5Q426 -126 406 -144ZM47 -792Q-13 -792 -47.0 -755.5Q-81 -719 -81 -665Q-81 -611 -62.5 -556.0Q-44 -501 -8.5 -444.5Q27 -388 79.5 -330.0Q132 -272 200 -214Q226 -191 249.5 -172.0Q273 -153 297.0 -134.5Q321 -116 347 -96L419 128Q394 93 366.5 66.5Q339 40 311.0 21.5Q283 3 254.5 -6.5Q226 -16 197 -16Q146 -16 116.5 7.5Q87 31 81.0 75.5Q75 120 96 182L169 406Q175 423 170.0 432.5Q165 442 151 442Q139 442 126.0 434.5Q113 427 98.5 410.5Q84 394 64 367Q54 354 45.0 349.5Q36 345 19 351Q-1 359 -2.5 371.5Q-4 384 4 398Q23 431 47.0 458.0Q71 485 100.5 501.0Q130 517 166 517Q200 517 220.5 505.0Q241 493 249.5 472.0Q258 451 256.5 424.5Q255 398 246 370L180 170Q169 137 168.5 112.5Q168 88 182.5 75.5Q197 63 228 63Q257 63 290.5 83.0Q324 103 358.5 139.5Q393 176 426.0 225.5Q459 275 487 335L535 483Q542 503 551.5 509.0Q561 515 580 515Q611 515 619.5 505.5Q628 496 621 476L296 -522Q272 -594 247.0 -645.5Q222 -697 192.0 -729.5Q162 -762 126.5 -777.0Q91 -792 47 -792ZM60 -716Q90 -716 116.0 -695.5Q142 -675 165.5 -631.0Q189 -587 211 -517L308 -216Q295 -227 282.0 -237.5Q269 -248 257.0 -258.5Q245 -269 234 -279Q177 -333 134.5 -382.5Q92 -432 63.5 -478.0Q35 -524 20.5 -567.5Q6 -611 6 -651Q6 -673 13.0 -687.5Q20 -702 32.5 -709.0Q45 -716 60 -716Z" transform="translate(153.93599999999998, 72) scale(0.072, -0.072)" /><path d="M203 -19Q156 -19 129.0 -0.5Q102 18 92.0 49.5Q82 81 84.5 119.0Q87 157 100 195L169 406Q175 423 170.0 432.5Q165 442 151 442Q139 442 126.0 434.5Q113 427 98.5 410.5Q84 394 64 367Q54 354 45.0 349.5Q36 345 19 351Q-1 359 -2.5 371.5Q-4 384 4 398Q23 431 47.0 458.0Q71 485 100.5 501.0Q130 517 166 517Q200 517 220.5 505.0Q241 493 249.0 472.0Q257 451 255.5 424.5Q254 398 245 370L185 184Q176 155 172.5 126.5Q169 98 180.5 79.5Q192 61 226 61Q251 61 277.5 75.5Q304 90 329.0 116.5Q354 143 376.5 179.0Q399 215 415 256L489 484Q494 501 503.0 508.5Q512 516 534 516Q566 516 573.0 506.5Q580 497 574 478L494 223Q486 199 479.5 170.5Q473 142 474.0 117.0Q475 92 488.0 76.5Q501 61 532 61Q568 61 600.5 81.5Q633 102 659.5 136.0Q686 170 705.0 211.5Q724 253 735.0 297.0Q746 341 746 380Q746 394 745.0 408.5Q744 423 742.5 437.0Q741 451 738 464Q734 483 738.0 495.0Q742 507 752.5 513.0Q763 519 779 519Q797 519 807.5 508.0Q818 497 824 471Q827 458 829.0 444.0Q831 430 832.0 415.5Q833 401 833 385Q833 337 818.5 282.0Q804 227 777.0 174.0Q750 121 711.0 77.0Q672 33 623.0 7.0Q574 -19 515 -19Q469 -19 441.0 -3.0Q413 13 399.5 38.5Q386 64 384 95Q361 60 333.0 34.0Q305 8 273.0 -5.5Q241 -19 203 -19Z" transform="translate(201.81599999999997, 72) scale(0.072, -0.072)" /><path d="M-159 -17Q-178 -17 -184.0 -5.5Q-190 6 -186.5 20.5Q-183 35 -171.0 46.5Q-159 58 -140 58Q-106 58 -69.5 81.0Q-33 104 5.5 150.5Q44 197 85.0 269.5Q126 342 170 441L227 415Q175 293 128.5 210.5Q82 128 36.0 77.5Q-10 27 -57.5 5.0Q-105 -17 -159 -17ZM399 -16Q362 -16 341.5 -3.0Q321 10 314.0 31.5Q307 53 309.5 78.0Q312 103 320 128Q327 149 339.5 179.5Q352 210 366.5 244.5Q381 279 395.0 313.5Q409 348 417 378Q425 408 418.5 418.5Q412 429 393 429Q369 429 339.5 419.0Q310 409 279.0 399.5Q248 390 217 390Q197 390 182.5 404.5Q168 419 160.5 442.0Q153 465 153 490Q153 513 160.5 534.0Q168 555 183.5 568.5Q199 582 223 582Q246 582 257.0 568.5Q268 555 268 535Q268 520 263.0 502.5Q258 485 250 469Q265 469 294.0 480.0Q323 491 359.5 502.0Q396 513 431 513Q461 513 481.5 499.0Q502 485 508.5 454.5Q515 424 501 372Q494 344 480.0 309.5Q466 275 450.5 238.0Q435 201 421.0 167.0Q407 133 399 106Q390 80 395.5 70.0Q401 60 415 60Q427 60 438.5 67.0Q450 74 460.5 85.5Q471 97 481 110Q488 119 497.0 122.0Q506 125 520 115Q537 105 538.5 94.5Q540 84 535 74Q525 57 506.0 36.0Q487 15 460.5 -0.5Q434 -16 399 -16Z" transform="translate(265.75199999999995, 72) scale(0.072, -0.072)" /><path d="M135 -16Q73 -16 54.0 28.5Q35 73 62 155L169 483Q175 503 184.5 509.0Q194 515 214 515Q245 515 253.5 505.5Q262 496 255 476L137 114Q128 87 131.5 73.5Q135 60 152 60Q164 60 175.0 66.5Q186 73 196.5 84.5Q207 96 218 110Q225 119 234.5 122.0Q244 125 257 115Q274 105 275.5 94.5Q277 84 271 74Q256 48 235.0 27.5Q214 7 189.0 -4.5Q164 -16 135 -16ZM276 669Q256 669 241.5 682.0Q227 695 227 720Q227 747 245.0 771.0Q263 795 300 795Q320 795 334.5 782.5Q349 770 349 744Q349 717 331.5 693.0Q314 669 276 669Z" transform="translate(306.64799999999997, 72) scale(0.072, -0.072)" /><path d="M163 -16Q114 -16 91.0 7.0Q68 30 67.5 70.5Q67 111 84 163L167 420H90Q79 420 75.0 430.0Q71 440 76 460Q82 480 91.5 490.0Q101 500 112 500H194L258 698Q264 718 273.5 724.0Q283 730 303 730Q334 730 342.5 720.5Q351 711 344 691L282 500H408Q419 500 423.0 490.5Q427 481 422 460Q416 441 406.0 430.5Q396 420 385 420H256L160 128Q149 93 154.5 76.5Q160 60 180 60Q206 60 231.5 79.0Q257 98 277 125Q285 134 295.0 136.5Q305 139 320 129Q336 119 337.0 109.0Q338 99 333 90Q321 69 298.0 44.5Q275 20 241.5 2.0Q208 -16 163 -16Z" transform="translate(328.248, 72) scale(0.072, -0.072)" /><path d="M243 -18Q207 -18 177.0 -6.0Q147 6 123.0 27.0Q99 48 82.0 77.0Q65 106 56.0 141.0Q47 176 47 215Q47 253 55.5 294.5Q64 336 82.5 376.0Q101 416 129.0 448.5Q157 481 195.0 500.0Q233 519 282 519Q319 519 345.5 504.5Q372 490 386.0 464.5Q400 439 400 405Q400 352 372.5 300.5Q345 249 300.0 202.5Q255 156 202 118Q147 78 85.5 47.5Q24 17 -35.0 0.0Q-94 -17 -143 -17Q-157 -17 -163.5 -5.5Q-170 6 -168.0 20.5Q-166 35 -154.5 46.5Q-143 58 -122 58Q-82 58 -33.0 74.0Q16 90 66.5 117.5Q117 145 162 180Q200 209 234.0 243.0Q268 277 289.0 313.5Q310 350 310 385Q310 411 298.5 425.0Q287 439 263 439Q232 439 208.0 416.5Q184 394 168.0 360.0Q152 326 143.5 288.0Q135 250 135 218Q135 184 144.0 155.5Q153 127 170.0 106.0Q187 85 209.5 73.5Q232 62 260 62Q287 62 313.0 73.0Q339 84 364.0 103.0Q389 122 411 143Q424 156 438.5 153.5Q453 151 463 140Q475 128 477.0 115.0Q479 102 466 88Q431 49 394.5 26.0Q358 3 320.0 -7.5Q282 -18 243 -18Z" transform="translate(356.18399999999997, 72) scale(0.072, -0.072)" /><path d="M1022 -18Q965 -18 934.0 11.0Q903 40 901.0 97.5Q899 155 926 238L1166 957Q1193 1038 1190.0 1092.5Q1187 1147 1154.5 1175.0Q1122 1203 1058 1203Q1019 1203 971.0 1187.5Q923 1172 870.5 1139.0Q818 1106 764.0 1052.5Q710 999 659.0 923.5Q608 848 563 748L326 14Q321 0 309.0 -7.0Q297 -14 274 -14Q252 -14 241.5 -7.0Q231 0 236 16L581 1082Q601 1143 592.0 1174.5Q583 1206 545 1206Q520 1206 490.0 1189.0Q460 1172 426.5 1137.5Q393 1103 354 1051Q340 1033 326.0 1031.0Q312 1029 296 1041Q280 1052 279.0 1065.0Q278 1078 290 1095Q337 1162 383.5 1205.0Q430 1248 475.0 1269.0Q520 1290 562 1290Q601 1290 627.5 1276.5Q654 1263 667.5 1238.5Q681 1214 683.0 1178.5Q685 1143 674 1099L644 1004Q696 1080 753.0 1134.0Q810 1188 867.0 1222.0Q924 1256 977.5 1272.0Q1031 1288 1075 1288Q1167 1288 1218.0 1247.0Q1269 1206 1278.5 1130.0Q1288 1054 1253 950L1011 224Q992 167 989.0 132.0Q986 97 997.5 81.0Q1009 65 1032 65Q1053 65 1074.0 79.0Q1095 93 1119.0 122.5Q1143 152 1172 198Q1184 216 1195.5 219.0Q1207 222 1224 213Q1242 202 1245.0 189.5Q1248 177 1239 160Q1214 118 1188.0 85.5Q1162 53 1134.5 29.5Q1107 6 1079.0 -6.0Q1051 -18 1022 -18Z" transform="translate(409.752, 72) scale(0.072, -0.072)" /><path d="M127 -21Q86 -21 55.5 -6.0Q25 9 7.5 37.0Q-10 65 -10 101Q-10 146 11.5 181.0Q33 216 71.5 235.5Q110 255 160 255Q203 255 241.5 242.5Q280 230 317.0 209.5Q354 189 391.0 166.5Q428 144 467.5 123.5Q507 103 551.5 90.5Q596 78 647 78Q711 78 764.5 101.5Q818 125 861.5 173.0Q905 221 939 292Q949 311 961.5 318.0Q974 325 995 314Q1013 305 1016.5 290.5Q1020 276 1010 256Q965 168 909.0 110.0Q853 52 785.5 22.5Q718 -7 635 -7Q569 -7 512.0 11.5Q455 30 406.0 57.0Q357 84 313.5 110.5Q270 137 230.5 155.5Q191 174 153 174Q120 174 100.5 156.5Q81 139 81 110Q81 87 96.5 72.5Q112 58 136 58Q190 58 234.5 110.5Q279 163 317 280L535 952Q563 1039 597.5 1103.0Q632 1167 675.0 1208.0Q718 1249 770.0 1268.5Q822 1288 885 1288Q944 1288 989.5 1262.0Q1035 1236 1065.0 1186.5Q1095 1137 1106 1066Q1109 1045 1102.0 1033.5Q1095 1022 1075 1018Q1056 1013 1044.5 1019.5Q1033 1026 1030 1045Q1020 1100 998.5 1135.5Q977 1171 945.5 1189.0Q914 1207 872 1207Q829 1207 792.0 1191.0Q755 1175 724.0 1142.0Q693 1109 667.0 1059.5Q641 1010 619 942L400 266Q367 165 326.5 101.5Q286 38 236.5 8.5Q187 -21 127 -21Z" transform="translate(503.568, 72) scale(0.072, -0.072)" /></g></svg>
